X:1
T:Crooked Jack
M:2/4
L:1/8
K:Eb
 E| EE CB,| B/2 B3/2 B B/2B/2| cB/2-G/2 EF| C3| D/2D/2| E/2 E3/2 CB,|\
 BB BB| cB/2-G/2 EF| E3| B/2B/2| ccc/2-B/2 G/2A/2| BB B B/2B/2| c B/2G/2 EF|\
 F3| E/2E/2| EE CB,| BB B G/2B/2| cB/2-G/2 E/2 F3/2| E3||
